material/.icons/material/chair-rolling.svg

<svg xmlns="http://www.w3.org/2000/svg" viewBox="0 0 24 24"><path d="M22 10v3h-3v-3h3M2 13h3v-3H2v3m15-8c0-1.1-.9-2-2-2H9c-1.1 0-2 .9-2 2v8h10V5M7 15H6v2h5v1l-4 4h2.8l2.2-2.2 2.2 2.2H17l-4-4v-1h5v-2H7z"/></svg>

<?xml version="1.0" encoding="UTF-8"?><!DOCTYPE svg PUBLIC "-//W3C//DTD SVG 1.1//EN" "http://www.w3.org/Graphics/SVG/1.1/DTD/svg11.dtd"><svg xmlns="http://www.w3.org/2000/svg" xmlns:xlink="http://www.w3.org/1999/xlink" version="1.1" id="mdi-chair-rolling" width="24" height="24" viewBox="0 0 24 24"><path d="M22 10V13H19V10H22M2 13H5V10H2V13M17 5C17 3.9 16.1 3 15 3H9C7.9 3 7 3.9 7 5V13H17V5M7 15H6V17H11V18L7 22H9.8L12 19.8L14.2 22H17L13 18V17H18V15H7Z" /></svg>
